X:1
T:Title
%%score { 1 | 2 }
L:1/8
M:2/4
K:F
V:1 treble nm="Grand Piano"
V:2 bass 
V:1
 z2 z[Q:1/4=100] F | A2 AA | A2 GA | [GB]2 [FA][EG] | A3 A | c2 cc | d2 cA | [EG]2 [FA][EG] | %8
[M:3/8] F3 |[M:1/8] F |[M:2/4] [EG]2 [EG][EG] | [EG]2 [DF][EG] | A2 cA | [CEG]3 [B,EG] | %14
 [A,DF]2 [A,DF][A,DF] | [A,FA]2 [A,EG][A,DF] | [B,EG]2 [CEA][B,EG] | [A,F]4 | [CFA]4 | [DFB]4 | %20
 [CFA]4- | [CFA]4 | [B,EG]4 | [CEA]4 | [A,F]4- |[M:3/8] [A,F]3 |[M:1/8] [A,F] | %27
[M:2/4] [EG]2 [EG][EG] | [EG]2 [DF][EG] | A2 cA | [CEG]3 [B,EG] | [A,DF]2 [A,DF][A,DF] | %32
 [A,FA]2 [A,EG][A,DF] | [B,EG]2 [CEA][B,EG] |[M:6/4] .[A,F]6 z6 |] %35
V:2
 z2 z [F,A,C] | [F,CF]2 [F,CF][F,CF] | [F,CF]2 [F,CE][F,CF] | [C,C]2 [C,C][C,C] | [F,CF]3 [F,CF] | %5
 [F,A,F]2 [F,A,F][F,A,F] | [F,B,F]2 [F,A,F][F,CF] | [C,B,]2 [C,C][C,B,] |[M:3/8] [F,A,]3 | %9
[M:1/8] [F,A,] |[M:2/4] [C,C]2 [C,C][C,C] | [C,C]2 [C,C][C,C] | [F,CF]2 [F,A,F][F,CF] | C,3 C, | %14
 D,2 D,D, | D,2 D,D, | C,2 C,C, | F,4 | F,4 | F,4 | F,4- | F,4 | C,4 | C,4 | F,4- |[M:3/8] F,3 | %26
[M:1/8] F, |[M:2/4] [C,C]2 [C,C][C,C] | [C,C]2 [C,C][C,C] | [F,CF]2 [F,A,F][F,CF] | C,3 C, | %31
 D,2 D,D, | D,2 D,D, | C,2 C,C, |[M:6/4] .F,6 z6 |] %35

